X:28
T:Bang up Sir. Roose.0708
T:Bang Up
L:1/8
M:6/8
Q:3/8=100
B:J.Roose MS, Manchester 1850
Z:Village Music Project. Ian Hayden 2019
K:D
d2d f2f|a2a f2d|g2e f2d|ced cBA|
d2d f2f|a2a f2d|g2e f2d|cec d3:|
|:F2A E2A|F2A d2A|B2d A2d|BAG FED|
F2A E2A|F2A d2A|Bcd edc|d3 d3:|
|:f2e d2c|B2A G2F|G2A B2e|dcB A3|
f2e d2c|B2A G2F|GAB A2F|D3 D3:|

